X:1
T:JANMONTH
M:4/4
L:1/4
K:C
 c3/2 G/2 G c| A3/2 A/2 A2| B3/2 G/2 A B| d c c2| e3/2 e/2 e e| f g a2|\
 G3/2 G/2 A B| d c c2|
